X:0832
T:The Hawthorn that blooms in the Vale.
M:2/4
L:1/8
Q:1/4=72 "Slow"
I: ||
Z:Jack Campin * www.campin.me.uk * 2009
K:D
F/>E/|D2 A>B|A2de|(fdc)B| A2 z A    |d2 fa|   d2A=c|BAGF |E2 z
G    |F>GAB |A2de| fdAf | g2 z(f/g/)|a>fed|{c}B2A>d|F2E>F|D2 z
G    |F>GAB |A2de| fdAf |Hg2 z(f/g/)|a>fed|{c}B2Ad |F2EF |D3 |]

